X:134
T: ALS ICH AUF DEN KIRCHHOF KAM
N: K2222
O: Europa, Mitteleuropa, Deutschland, Moseltal
R: Kinder - Lied, Reigen, Tanz - Spiel, Brautwerbung
M: 2/4
L: 1/16
K: F
C2 | F2G2A2B2 | c3dc2
c2 | d2d2f2d2 | c4z2
c2 | c3BB2B2 | B3AA2
A2 | A2G2A2G2 | F2A2c2
cc | c2B2B2BB | B2A2A2
AA | A2G2A2G2 | F4z2

